!!!COM: Bach, Johann Sebastian
!!!OPR: Inventio
!!!OTL: Inventio 7
!!!XEN: Two-part Inventions [for keyboard]
!!!ONM: No. 7
!!!ONB: In E minor.
!!!SCT: BWV 778
!!!YEC: Copyright 1994, David Huron
!!!YEM: Rights to all derivative electronic formats reserved.
!! Performance duration: 1:48; performance tempo: 51.1 quarter-notes per minute.
!! (Andras Schiff, piano, "Two-Part Inventions BWV 772a-786; Three-part
!! Inventions BWV 787-801" Decca 411 974-2)
**kern	**kern
*staff2	*staff1
*clefF4	*clefG2
*k[f#]	*k[f#]
*e:	*e:
*M4/4	*M4/4
*MM51.1	*MM51.1
=1-	=1-
8EW	8r
8EE	16b
.	16a
4r	16g
.	16f#
.	16g
.	16e
8r	8bW
16B	8b
16A	.
16G	8.eeW
16F#	.
16G	.
16E	16ff#
=2	=2
8B	8dd#M
8BB	16ff#
.	16ee
4r	16dd
.	16cc#
.	16dd
.	16b
8r	8bb
16f#	16aa
16e	16gg
16d#	8.ff#M
16c#	.
16d#	.
16B	32ee
.	32ff#
=3	=3
8e	8gg
8E	16bb
.	16aa
4r	16gg
.	16ff#
.	16gg
.	16ee
8r	8.ccc
16e	.
16d	16bb
16c	16aa
16B	16gg
16c	16ff#
16A	16ee
=4	=4
8d	8ff#
8D	16aa
.	16gg
4r	16ff#
.	16ee
.	16ff#
.	16dd
8r	8.bb
16d	.
16c	16aa
16B	16gg
16A	16ff#
16B	16ee
16G	16dd
=5	=5
8.c	16ee
.	16ff#
.	16ee
16B	16dd
16A	16cc
16G	16b
16F#	16a
16E	16g
8.A	16cc
.	16b
.	16a
16G	16b
16F#	16cc
16E	16dd
16D	16ee
16C	16ff#
=6	=6
8.BB	16gg
.	16ff#
.	16ee
16C	16dd
16BB	8.ggW
16AA	.
16GG	.
16FF#	16gg
8EE	16gg
.	16ff#
8C	16ee
.	16ff#
8D	8.ff#M
8DD	.
.	16gg
=7	=7
4GG	8gg
.	16dd
.	16cc
4r	16b
.	16a
.	16b
.	16g
8r	[2ddM
16GG	.
16AA	.
16BB	.
16AA	.
16BB	.
16GG	.
=8	=8
16D	1dd_
16C#	.
16D	.
16E	.
16F#	.
16E	.
16F#	.
16D	.
16G	.
16F#	.
16G	.
16A	.
16B	.
16A	.
16B	.
16F#	.
=9	=9
16G	8.dd]
16F#	.
16G	.
16E	16ee
8A	8.cc#M
8AA	.
.	16dd
8D	8dd
8DD	16a
.	16g
4r	16f#
.	16e
.	16f#
.	16d
=10	=10
8r	8.ccW
16A	.
16G	16b
16F#	8.cc
16E	.
16F#	.
16D	16dd
16G	8bW
16A	.
16G	8b
16F#	.
16E	8.eeW
16D	.
16E	.
16C#	16ee
=11	=11
8F#	16ee
.	16gg
8AA#	16ff#
.	16ee
8BB	16dd
.	16cc#
8GG	16dd
.	16b
4FF#	8a#
.	16ff#
.	16ee
8r	16dd
.	16cc#
16B	16dd
16An	16b
=12	=12
16G	8ee
16F#	.
16G	16bb
16E	16aan
8.d	16gg
.	16ff#
.	16gg
16e	16ee
8c#	8aa#
16g	8cc#
16f#	.
16e	8ff#
16d	.
16e	8a#
16c#	.
=13	=13
16d	8.b
16c#	.
16d	.
16B	16cc#
8f#	8.cc#
8F#	.
.	16b
16B	8b
16cn	.
16B	8dd
16A	.
16G#	8e
16F#	.
16G#	8dd
16E	.
=14	=14
16A	8cc
16B	.
16A	8a
16Gn	.
16F#	8d
16E	.
16F#	8cc
16D	.
16G	8b
16A	.
16G	8dd
16F#	.
16E	8gg
16D	.
16E	8b
16C#	.
=15	=15
16D#	8a
16C#	.
16D#	8ff#
16BB	.
16E	8g
16D#	.
16E	8ee
16EE	.
[2BB	8dd#M
.	16ff#
.	16ee
.	16dd#
.	16cc#
.	16b
.	16a
=16	=16
1BB_	16g
.	16f#
.	16g
.	16b
.	16ee
.	16b
.	16a
.	16g
.	16f#
.	16e
.	16f#
.	16a
.	16dd#
.	16a
.	16g
.	16f#
=17	=17
2BB_	16e
.	16d#
.	16e
.	16g
.	16cc
.	16g
.	16f#
.	16e
4BB_	16d#
.	16c#
.	16d#
.	16f#
16BB]	8b
16c	.
16B	8b
16A	.
=18	=18
16G	[4b
16F#	.
16G	.
16B	.
16e	16b]
16B	16dd#
16A	16ee
16G	16gg
16F#	[4a
16E	.
16F#	.
16A	.
16d#	16a]
16A	16cc#
16G	16dd#
16F#	16ff#
=19	=19
16E	[4g
16D#	.
16E	.
16G	.
16c	16g]
16G	16b
16F#	16dd#
16E	16ee
8D#	16f#
.	16a
8BB	16b
.	16cc
4r	16d#
.	16f#
.	16g
.	16a
=20	=20
16r	8B
16G	.
16F#	[8a
16E	.
16D#	16a]
16C#	16f#
16D#	16b
16BB	16f#
16E	8g
16Dn	.
16Cn	8e
16BB	.
16AA	8.ccW
16GG	.
16AA	.
16FF#	16cc
=21	=21
16GG	8ccM
16AA	.
16GG	8b
16FF#	.
16EE	8.gg
16DD	.
16EE	.
16CC	16gg
16AA	16gg
16GG	16aa
16AA	16gg
16FF#	16ff#
16BB	8.ff#M
16AA	.
16BB	.
16GG	16ee
=22	=22
[2C	16ee
.	16dd
.	16cc
.	16b
.	16a
.	16g
.	16a
.	16f#
16C]	8dd#
16c	.
16B	8f#
16A	.
16G	8.b
16F#	.
16G	.
16E	16cc
=23	=23
8D#	8.aM
8E	.
.	16g
8B	8.f#M
8BB	.
.	16e
2EE;	2e;
==|!	==|!
*-	*-
!!!CDT: 1685/3//-1750/7/28
!!!OCY: Deutschland
!!!AGN: polyphony
!!!AST: baroque
!!!AMT: simple quadruple
!!!SCA: Bach-Werke-Verzeichnis
!!!YOR: Bach Gesellschaft
!!!AIN: cemb; clavi
!!!EEV: 1.0
!!!RDT: 1986 November
!!!YER: 1995 May 22
!!!YEN: Canada
!!!EFL: 7/15
!!!EED: David Huron
